assets/post/images/tree9.svg

<svg xmlns="http://www.w3.org/2000/svg" width="2979" height="738" overflow="hidden"><defs><clipPath id="a"><path d="M264 306h2979v738H264z"/></clipPath></defs><g clip-path="url(#a)" transform="translate(-264 -306)"><path fill="#f0835c" fill-rule="evenodd" stroke="#000" stroke-miterlimit="8" stroke-width="9.167" d="M675.5 391.5c0-43.63 35.369-79 79-79s79 35.37 79 79-35.369 79-79 79-79-35.369-79-79Z"/><text font-family="Courier New,Courier New_MSFontService,sans-serif" font-size="83" font-weight="700" transform="translate(729.652 415)">G</text><path fill="#f8ccb9" fill-rule="evenodd" stroke="red" stroke-miterlimit="8" stroke-width="9.167" d="M425.5 641.5c0-43.631 35.37-79 79-79s79 35.369 79 79-35.37 79-79 79-79-35.37-79-79Z"/><text fill="red" font-family="Courier New,Courier New_MSFontService,sans-serif" font-size="83" font-weight="700" transform="translate(479.607 665)">P</text><path fill="#fdefe8" fill-rule="evenodd" stroke="red" stroke-miterlimit="8" stroke-width="9.167" d="M268.5 944.5c0-43.63 35.146-79 78.5-79s78.5 35.37 78.5 79-35.146 79-78.5 79-78.5-35.37-78.5-79Z"/><text fill="red" font-family="Courier New,Courier New_MSFontService,sans-serif" font-size="83" font-weight="700" transform="translate(321.781 968)">x</text><path fill="#f8ccb9" fill-rule="evenodd" stroke="#000" stroke-miterlimit="8" stroke-width="9.167" d="M940.5 641.5c0-43.631 35.37-79 79-79s79 35.369 79 79-35.37 79-79 79-79-35.37-79-79Z"/><text font-family="Courier New,Courier New_MSFontService,sans-serif" font-size="83" font-weight="700" transform="translate(994.19 665)">U</text><path fill="none" stroke="#000" stroke-miterlimit="8" stroke-width="9.167" d="M560.5 585.893 698.945 447.5m264.493 138.393L810.5 447.5m-464 418.381L448.526 697.5"/><path fill="#f0835c" fill-rule="evenodd" stroke="red" stroke-miterlimit="8" stroke-width="9.167" d="M1676.5 390.5c0-43.631 35.37-79 79-79s79 35.369 79 79-35.37 79-79 79-79-35.369-79-79Z"/><text fill="red" font-family="Courier New,Courier New_MSFontService,sans-serif" font-size="83" font-weight="700" transform="translate(1730.09 414)">G</text><path fill="#f8ccb9" fill-rule="evenodd" stroke="#000" stroke-miterlimit="8" stroke-width="9.167" d="M1426.5 640.5c0-43.631 35.37-79 79-79s79 35.369 79 79-35.37 79-79 79-79-35.37-79-79Z"/><text font-family="Courier New,Courier New_MSFontService,sans-serif" font-size="83" font-weight="700" transform="translate(1480.05 664)">P</text><path fill="#fdefe8" fill-rule="evenodd" stroke="red" stroke-miterlimit="8" stroke-width="9.167" d="M1268.5 943.5c0-43.63 35.37-79 79-79s79 35.37 79 79-35.37 79-79 79-79-35.369-79-79Z"/><text fill="red" font-family="Courier New,Courier New_MSFontService,sans-serif" font-size="83" font-weight="700" transform="translate(1322.22 967)">x</text><path fill="#f8ccb9" fill-rule="evenodd" stroke="#000" stroke-miterlimit="8" stroke-width="9.167" d="M1940.5 640.5c0-43.631 35.37-79 79-79s79 35.369 79 79-35.37 79-79 79-79-35.37-79-79Z"/><text font-family="Courier New,Courier New_MSFontService,sans-serif" font-size="83" font-weight="700" transform="translate(1994.63 664)">U</text><path fill="none" stroke="#000" stroke-miterlimit="8" stroke-width="9.167" d="M1560.5 584.893 1698.945 446.5m265.495 138.393L1811.5 446.5m-464 418.381L1449.526 696.5"/><path fill="#d74514" fill-rule="evenodd" d="M1180 583.5h90V527l90 113-90 113v-56.5h-90Z"/><path fill="#f8ccb9" fill-rule="evenodd" stroke="#000" stroke-miterlimit="8" stroke-width="9.167" d="M2677.5 389.5c0-43.631 35.37-79 79-79s79 35.369 79 79-35.37 79-79 79-79-35.37-79-79Z"/><text font-family="Courier New,Courier New_MSFontService,sans-serif" font-size="83" font-weight="700" transform="translate(2731.64 412)">P</text><path fill="#fdefe8" fill-rule="evenodd" stroke="red" stroke-miterlimit="8" stroke-width="9.167" d="M2427.5 639.5c0-43.63 35.37-79 79-79s79 35.37 79 79-35.37 79-79 79-79-35.37-79-79Z"/><text fill="red" font-family="Courier New,Courier New_MSFontService,sans-serif" font-size="83" font-weight="700" transform="translate(2481.6 662)">P</text><path fill="#f0835c" fill-rule="evenodd" stroke="red" stroke-miterlimit="8" stroke-width="9.167" d="M2942.5 639.5c0-43.63 35.37-79 79-79s79 35.37 79 79-35.37 79-79 79-79-35.37-79-79Z"/><text fill="red" font-family="Courier New,Courier New_MSFontService,sans-serif" font-size="83" font-weight="700" transform="translate(2996.18 662)">G</text><path fill="none" stroke="#000" stroke-miterlimit="8" stroke-width="9.167" d="M2562.5 582.893 2700.945 444.5m264.495 138.393L2812.5 444.5"/><path fill="#f8ccb9" fill-rule="evenodd" stroke="#000" stroke-miterlimit="8" stroke-width="9.167" d="M3081.5 941.5c0-43.631 35.15-79 78.5-79s78.5 35.369 78.5 79-35.15 79-78.5 79-78.5-35.369-78.5-79Z"/><text font-family="Courier New,Courier New_MSFontService,sans-serif" font-size="83" font-weight="700" transform="translate(3134.85 964)">U</text><path fill="none" stroke="#000" stroke-miterlimit="8" stroke-width="9.167" d="M3160.41 861.881 3081.5 693.5"/><path fill="#d74514" fill-rule="evenodd" d="M2181 582.5h90V526l90 113-90 113v-56.5h-90Z"/></g></svg>

<svg width="2979" height="738" xmlns="http://www.w3.org/2000/svg" xmlns:xlink="http://www.w3.org/1999/xlink" overflow="hidden"><defs><clipPath id="clip0"><rect x="264" y="306" width="2979" height="738"/></clipPath></defs><g clip-path="url(#clip0)" transform="translate(-264 -306)"><path d="M675.5 391.5C675.5 347.87 710.869 312.5 754.5 312.5 798.131 312.5 833.5 347.87 833.5 391.5 833.5 435.131 798.131 470.5 754.5 470.5 710.869 470.5 675.5 435.131 675.5 391.5Z" stroke="#000000" stroke-width="9.16667" stroke-miterlimit="8" fill="#F0835C" fill-rule="evenodd"/><text font-family="Courier New,Courier New_MSFontService,sans-serif" font-weight="700" font-size="83" transform="matrix(1 0 0 1 729.652 415)">G</text><path d="M425.5 641.5C425.5 597.869 460.87 562.5 504.5 562.5 548.13 562.5 583.5 597.869 583.5 641.5 583.5 685.13 548.13 720.5 504.5 720.5 460.87 720.5 425.5 685.13 425.5 641.5Z" stroke="#FF0000" stroke-width="9.16667" stroke-miterlimit="8" fill="#F8CCB9" fill-rule="evenodd"/><text fill="#FF0000" font-family="Courier New,Courier New_MSFontService,sans-serif" font-weight="700" font-size="83" transform="matrix(1 0 0 1 479.607 665)">P</text><path d="M268.5 944.5C268.5 900.87 303.646 865.5 347 865.5 390.354 865.5 425.5 900.87 425.5 944.5 425.5 988.13 390.354 1023.5 347 1023.5 303.646 1023.5 268.5 988.13 268.5 944.5Z" stroke="#FF0000" stroke-width="9.16667" stroke-miterlimit="8" fill="#FDEFE8" fill-rule="evenodd"/><text fill="#FF0000" font-family="Courier New,Courier New_MSFontService,sans-serif" font-weight="700" font-size="83" transform="matrix(1 0 0 1 321.781 968)">x</text><path d="M940.5 641.5C940.5 597.869 975.87 562.5 1019.5 562.5 1063.13 562.5 1098.5 597.869 1098.5 641.5 1098.5 685.13 1063.13 720.5 1019.5 720.5 975.87 720.5 940.5 685.13 940.5 641.5Z" stroke="#000000" stroke-width="9.16667" stroke-miterlimit="8" fill="#F8CCB9" fill-rule="evenodd"/><text font-family="Courier New,Courier New_MSFontService,sans-serif" font-weight="700" font-size="83" transform="matrix(1 0 0 1 994.19 665)">U</text><path d="M0 0 138.445 138.393" stroke="#000000" stroke-width="9.16667" stroke-miterlimit="8" fill="none" fill-rule="evenodd" transform="matrix(1 0 0 -1 560.5 585.893)"/><path d="M963.438 585.893 810.5 447.5" stroke="#000000" stroke-width="9.16667" stroke-miterlimit="8" fill="none" fill-rule="evenodd"/><path d="M0 0 102.026 168.381" stroke="#000000" stroke-width="9.16667" stroke-miterlimit="8" fill="none" fill-rule="evenodd" transform="matrix(1 0 0 -1 346.5 865.881)"/><path d="M1676.5 390.5C1676.5 346.869 1711.87 311.5 1755.5 311.5 1799.13 311.5 1834.5 346.869 1834.5 390.5 1834.5 434.131 1799.13 469.5 1755.5 469.5 1711.87 469.5 1676.5 434.131 1676.5 390.5Z" stroke="#FF0000" stroke-width="9.16667" stroke-miterlimit="8" fill="#F0835C" fill-rule="evenodd"/><text fill="#FF0000" font-family="Courier New,Courier New_MSFontService,sans-serif" font-weight="700" font-size="83" transform="matrix(1 0 0 1 1730.09 414)">G</text><path d="M1426.5 640.5C1426.5 596.869 1461.87 561.5 1505.5 561.5 1549.13 561.5 1584.5 596.869 1584.5 640.5 1584.5 684.13 1549.13 719.5 1505.5 719.5 1461.87 719.5 1426.5 684.13 1426.5 640.5Z" stroke="#000000" stroke-width="9.16667" stroke-miterlimit="8" fill="#F8CCB9" fill-rule="evenodd"/><text font-family="Courier New,Courier New_MSFontService,sans-serif" font-weight="700" font-size="83" transform="matrix(1 0 0 1 1480.05 664)">P</text><path d="M1268.5 943.5C1268.5 899.87 1303.87 864.5 1347.5 864.5 1391.13 864.5 1426.5 899.87 1426.5 943.5 1426.5 987.131 1391.13 1022.5 1347.5 1022.5 1303.87 1022.5 1268.5 987.131 1268.5 943.5Z" stroke="#FF0000" stroke-width="9.16667" stroke-miterlimit="8" fill="#FDEFE8" fill-rule="evenodd"/><text fill="#FF0000" font-family="Courier New,Courier New_MSFontService,sans-serif" font-weight="700" font-size="83" transform="matrix(1 0 0 1 1322.22 967)">x</text><path d="M1940.5 640.5C1940.5 596.869 1975.87 561.5 2019.5 561.5 2063.13 561.5 2098.5 596.869 2098.5 640.5 2098.5 684.13 2063.13 719.5 2019.5 719.5 1975.87 719.5 1940.5 684.13 1940.5 640.5Z" stroke="#000000" stroke-width="9.16667" stroke-miterlimit="8" fill="#F8CCB9" fill-rule="evenodd"/><text font-family="Courier New,Courier New_MSFontService,sans-serif" font-weight="700" font-size="83" transform="matrix(1 0 0 1 1994.63 664)">U</text><path d="M0 0 138.445 138.393" stroke="#000000" stroke-width="9.16667" stroke-miterlimit="8" fill="none" fill-rule="evenodd" transform="matrix(1 0 0 -1 1560.5 584.893)"/><path d="M1964.44 584.893 1811.5 446.5" stroke="#000000" stroke-width="9.16667" stroke-miterlimit="8" fill="none" fill-rule="evenodd"/><path d="M0 0 102.026 168.381" stroke="#000000" stroke-width="9.16667" stroke-miterlimit="8" fill="none" fill-rule="evenodd" transform="matrix(1 0 0 -1 1347.5 864.881)"/><path d="M1180 583.5 1270 583.5 1270 527 1360 640 1270 753 1270 696.5 1180 696.5Z" fill="#D74514" fill-rule="evenodd"/><path d="M2677.5 389.5C2677.5 345.869 2712.87 310.5 2756.5 310.5 2800.13 310.5 2835.5 345.869 2835.5 389.5 2835.5 433.13 2800.13 468.5 2756.5 468.5 2712.87 468.5 2677.5 433.13 2677.5 389.5Z" stroke="#000000" stroke-width="9.16667" stroke-miterlimit="8" fill="#F8CCB9" fill-rule="evenodd"/><text font-family="Courier New,Courier New_MSFontService,sans-serif" font-weight="700" font-size="83" transform="matrix(1 0 0 1 2731.64 412)">P</text><path d="M2427.5 639.5C2427.5 595.87 2462.87 560.5 2506.5 560.5 2550.13 560.5 2585.5 595.87 2585.5 639.5 2585.5 683.13 2550.13 718.5 2506.5 718.5 2462.87 718.5 2427.5 683.13 2427.5 639.5Z" stroke="#FF0000" stroke-width="9.16667" stroke-miterlimit="8" fill="#FDEFE8" fill-rule="evenodd"/><text fill="#FF0000" font-family="Courier New,Courier New_MSFontService,sans-serif" font-weight="700" font-size="83" transform="matrix(1 0 0 1 2481.6 662)">P</text><path d="M2942.5 639.5C2942.5 595.87 2977.87 560.5 3021.5 560.5 3065.13 560.5 3100.5 595.87 3100.5 639.5 3100.5 683.13 3065.13 718.5 3021.5 718.5 2977.87 718.5 2942.5 683.13 2942.5 639.5Z" stroke="#FF0000" stroke-width="9.16667" stroke-miterlimit="8" fill="#F0835C" fill-rule="evenodd"/><text fill="#FF0000" font-family="Courier New,Courier New_MSFontService,sans-serif" font-weight="700" font-size="83" transform="matrix(1 0 0 1 2996.18 662)">G</text><path d="M0 0 138.445 138.393" stroke="#000000" stroke-width="9.16667" stroke-miterlimit="8" fill="none" fill-rule="evenodd" transform="matrix(1 0 0 -1 2562.5 582.893)"/><path d="M2965.44 582.893 2812.5 444.5" stroke="#000000" stroke-width="9.16667" stroke-miterlimit="8" fill="none" fill-rule="evenodd"/><path d="M3081.5 941.5C3081.5 897.869 3116.65 862.5 3160 862.5 3203.35 862.5 3238.5 897.869 3238.5 941.5 3238.5 985.131 3203.35 1020.5 3160 1020.5 3116.65 1020.5 3081.5 985.131 3081.5 941.5Z" stroke="#000000" stroke-width="9.16667" stroke-miterlimit="8" fill="#F8CCB9" fill-rule="evenodd"/><text font-family="Courier New,Courier New_MSFontService,sans-serif" font-weight="700" font-size="83" transform="matrix(1 0 0 1 3134.85 964)">U</text><path d="M3160.41 861.881 3081.5 693.5" stroke="#000000" stroke-width="9.16667" stroke-miterlimit="8" fill="none" fill-rule="evenodd"/><path d="M2181 582.5 2271 582.5 2271 526 2361 639 2271 752 2271 695.5 2181 695.5Z" fill="#D74514" fill-rule="evenodd"/></g></svg>
